X:1
T:Buttermilk Hill
M:4/4
L:1/4
K:C
 c c B B| A/2A/2 A E2| G3/2 E/2 G3/2 E/2| G/2G/2 G C3/2 D/2| E E ED/2-C/2|\
 E A c2| c/2c/2 c B A/2G/2| A2 A2|
